public/images/clipboard.svg

import SpriteSymbol from "svg-baker-runtime/browser-symbol";
import sprite from "svg-sprite-loader/runtime/browser-sprite.build";
var symbol = new SpriteSymbol({
  "id": "icon-clipboard",
  "use": "icon-clipboard-usage",
  "viewBox": "0 0 1024 1024",
  "content": "<symbol class=\"icon\" viewBox=\"0 0 1024 1024\" id=\"icon-clipboard\"><defs><style type=\"text/css\"></style></defs><path d=\"M438.857143 950.857143l512 0 0-365.714286-237.714286 0q-22.820571 0-38.838857-16.018286t-16.018286-38.838857l0-237.714286-219.428571 0 0 658.285714zM585.142857 128l0-36.571429q0-7.460571-5.412571-12.873143t-12.873143-5.412571l-402.285714 0q-7.460571 0-12.873143 5.412571t-5.412571 12.873143l0 36.571429q0 7.460571 5.412571 12.873143t12.873143 5.412571l402.285714 0q7.460571 0 12.873143-5.412571t5.412571-12.873143zM731.428571 512l170.861714 0-170.861714-170.861714 0 170.861714zM1024 585.142857l0 384q0 22.820571-16.018286 38.838857t-38.838857 16.018286l-548.571429 0q-22.820571 0-38.838857-16.018286t-16.018286-38.838857l0-91.428571-310.857143 0q-22.820571 0-38.838857-16.018286t-16.018286-38.838857l0-768q0-22.820571 16.018286-38.838857t38.838857-16.018286l621.714286 0q22.820571 0 38.838857 16.018286t16.018286 38.838857l0 187.465143q11.995429 7.460571 20.553143 16.018286l233.179429 233.179429q16.018286 16.018286 27.428571 43.446857t11.410286 50.322286z\" p-id=\"4663\" /></symbol>"
});
var result = sprite.add(symbol);
export default symbol

<svg class="icon" viewBox="0 0 1024 1024" xmlns="http://www.w3.org/2000/svg" width="64" height="64"><defs><style/></defs><path d="M438.857 950.857h512V585.143H713.143q-22.82 0-38.839-16.018t-16.018-38.84V292.572H438.857v658.286zM585.143 128V91.429q0-7.461-5.413-12.874t-12.873-5.412H164.571q-7.46 0-12.873 5.412t-5.412 12.874V128q0 7.46 5.412 12.873t12.873 5.413h402.286q7.46 0 12.873-5.413T585.143 128zm146.286 384H902.29L731.43 341.138V512zM1024 585.143v384q0 22.82-16.018 38.839T969.142 1024h-548.57q-22.821 0-38.84-16.018t-16.018-38.84v-91.428H54.857q-22.82 0-38.839-16.018T0 822.857v-768q0-22.82 16.018-38.839T54.858 0H676.57q22.821 0 38.84 16.018t16.018 38.84v187.464q11.995 7.46 20.553 16.019l233.18 233.179q16.017 16.018 27.428 43.447t11.41 50.322z"/></svg>
